src/img/icons/acroread.svg

<svg xmlns="http://www.w3.org/2000/svg" xmlns:xlink="http://www.w3.org/1999/xlink" width="384pt" height="384pt" version="1.1" viewBox="0 0 384 384"> <defs> <filter id="alpha" width="100%" height="100%" x="0%" y="0%" filterUnits="objectBoundingBox"> <feColorMatrix in="SourceGraphic" type="matrix" values="0 0 0 0 1 0 0 0 0 1 0 0 0 0 1 0 0 0 1 0"/> </filter> <mask id="mask0"> <g filter="url(#alpha)"> <rect width="384" height="384" x="0" y="0" style="fill:rgb(0%,0%,0%);fill-opacity:0.301961"/> </g> </mask> <clipPath id="clip1"> <rect width="384" height="384" x="0" y="0"/> </clipPath> <g id="surface5" clip-path="url(#clip1)"> <path style="fill:rgb(0%,0%,0%)" d="M 149.0625 65.144531 C 136.222656 64.921875 125.140625 77.691406 127.855469 90.449219 C 129.683594 109.945312 142.253906 125.769531 152.0625 141.867188 C 153.167969 147.863281 150.003906 153.699219 149.792969 159.648438 C 143.398438 194.59375 133.640625 229.347656 118.628906 261.410156 C 100.050781 269.960938 79.015625 278.40625 68.152344 296.835938 C 61.257812 309.625 70.96875 326.882812 85.21875 328.230469 C 98.441406 330.039062 108.253906 318.710938 115.484375 309.214844 C 123.03125 299.003906 127.996094 286.84375 134.273438 275.871094 C 172.273438 260.566406 212.253906 249.871094 253.0625 245.808594 C 269.5625 257.621094 287.042969 271.550781 308.203125 272.394531 C 320.503906 272.210938 330.453125 260.273438 329.105469 248.144531 C 328.316406 237.105469 318.507812 229.363281 308.34375 227.292969 C 291.957031 222.355469 274.402344 225.058594 257.734375 225.179688 C 225.652344 199.546875 196.039062 170.054688 172.710938 136.308594 C 174.445312 115.792969 177.921875 93.101562 167.238281 74.4375 C 163.179688 68.550781 156.304688 64.515625 149.0625 65.148438 M 149.671875 83.78125 C 153.285156 84.476562 153.523438 89.859375 154.535156 92.734375 C 155.488281 98.597656 155.382812 104.582031 155.316406 110.503906 C 151.011719 102.464844 145.425781 94.0625 146.421875 84.535156 C 147.554688 84.488281 148.558594 83.914062 149.671875 83.785156 M 169.578125 163.789062 C 188.695312 187.5625 209.933594 209.457031 233.109375 229.300781 C 202.550781 233.960938 172.1875 241.769531 143.113281 252.300781 C 154.265625 223.15625 162.753906 193.046875 168.347656 162.316406 C 168.757812 162.804688 169.164062 163.296875 169.574219 163.789062 M 288.832031 243.707031 C 296.246094 244.421875 304.800781 243.992188 310.738281 249.101562 C 311.292969 253.710938 305.652344 254.382812 302.648438 252.714844 C 296.382812 250.621094 290.183594 247.992188 284.863281 243.984375 C 286.1875 243.902344 287.507812 243.730469 288.839844 243.707031 M 103.589844 292.199219 C 100.066406 298.757812 94.933594 304.9375 89.582031 309.582031 C 87.800781 312.464844 82.914062 307.132812 85.164062 304.882812 C 89.804688 297.613281 97.914062 293.761719 105.089844 289.421875 C 104.585938 290.347656 104.089844 291.273438 103.585938 292.203125"/> </g> </defs> <g> <path style="fill-rule:evenodd;fill:rgb(83.137%,9.803%,9.803%)" d="M 59.230469 23.25 L 324.769531 23.25 C 344.640625 23.25 360.75 39.359375 360.75 59.230469 L 360.75 324.769531 C 360.75 344.640625 344.640625 360.75 324.769531 360.75 L 59.230469 360.75 C 39.359375 360.75 23.25 344.640625 23.25 324.769531 L 23.25 59.230469 C 23.25 39.359375 39.359375 23.25 59.230469 23.25 Z M 59.230469 23.25"/> <use mask="url(#mask0)" xlink:href="#surface5"/> <path style="fill:rgb(100.000%,100.000%,100.000%)" d="M 144.5625 60.644531 C 131.722656 60.421875 120.640625 73.191406 123.355469 85.949219 C 125.183594 105.445312 137.753906 121.269531 147.5625 137.367188 C 148.667969 143.363281 145.503906 149.199219 145.292969 155.148438 C 138.898438 190.09375 129.140625 224.847656 114.128906 256.910156 C 95.550781 265.460938 74.515625 273.90625 63.652344 292.335938 C 56.757812 305.125 66.46875 322.382812 80.71875 323.730469 C 93.941406 325.539062 103.753906 314.210938 110.984375 304.714844 C 118.53125 294.503906 123.496094 282.34375 129.773438 271.371094 C 167.773438 256.066406 207.753906 245.371094 248.5625 241.308594 C 265.0625 253.121094 282.542969 267.050781 303.703125 267.894531 C 316.003906 267.710938 325.953125 255.773438 324.605469 243.644531 C 323.816406 232.605469 314.007812 224.863281 303.84375 222.792969 C 287.457031 217.855469 269.902344 220.558594 253.234375 220.679688 C 221.152344 195.046875 191.539062 165.554688 168.210938 131.808594 C 169.945312 111.292969 173.421875 88.601562 162.738281 69.9375 C 158.679688 64.050781 151.804688 60.015625 144.5625 60.648438 M 145.171875 79.28125 C 148.785156 79.976562 149.023438 85.359375 150.035156 88.234375 C 150.988281 94.097656 150.882812 100.082031 150.816406 106.003906 C 146.511719 97.964844 140.925781 89.5625 141.921875 80.035156 C 143.054688 79.988281 144.058594 79.414062 145.171875 79.285156 M 165.078125 159.289062 C 184.195312 183.0625 205.433594 204.957031 228.609375 224.800781 C 198.050781 229.460938 167.6875 237.269531 138.613281 247.800781 C 149.765625 218.65625 158.253906 188.546875 163.847656 157.816406 C 164.257812 158.304688 164.664062 158.796875 165.074219 159.289062 M 284.332031 239.207031 C 291.746094 239.921875 300.300781 239.492188 306.238281 244.601562 C 306.792969 249.210938 301.152344 249.882812 298.148438 248.214844 C 291.882812 246.121094 285.683594 243.492188 280.363281 239.484375 C 281.6875 239.402344 283.007812 239.230469 284.339844 239.207031 M 99.089844 287.699219 C 95.566406 294.257812 90.433594 300.4375 85.082031 305.082031 C 83.300781 307.964844 78.414062 302.632812 80.664062 300.382812 C 85.304688 293.113281 93.414062 289.261719 100.589844 284.921875 C 100.085938 285.847656 99.589844 286.773438 99.085938 287.703125"/> </g> <path style="fill:rgb(100.000%,100.000%,100.000%);fill-rule:evenodd;opacity:0.3" d="M 78.974609 31 C 52.479823 31 31 52.479823 31 78.974609 L 31 88.974609 C 31 62.479819 52.479823 41 78.974609 41 L 433.02539 41 C 459.52019 41 481 62.479819 481 88.974609 L 481 78.974609 C 481 52.479823 459.52019 31 433.02539 31 L 78.974609 31 z" transform="scale(0.75)"/> <path style="fill-rule:evenodd;opacity:0.3" d="M 31 423.02539 L 31 433.02539 C 31 459.52019 52.479819 481 78.974609 481 L 433.02539 481 C 459.52018 481 481 459.52019 481 433.02539 L 481 423.02539 C 481 449.52019 459.52018 471 433.02539 471 L 78.974609 471 C 52.479819 471 31 449.52019 31 423.02539 z" transform="scale(0.75)"/> </svg>

<svg width="512" height="512" version="1.1" viewBox="0 0 384 384" xmlns="http://www.w3.org/2000/svg"><defs><clipPath><rect width="384" height="384"/></clipPath></defs><path d="m59.23 23.25h265.54c19.871 0 35.98 16.109 35.98 35.98v265.54c0 19.871-16.109 35.98-35.98 35.98h-265.54c-19.871 0-35.98-16.109-35.98-35.98v-265.54c0-19.871 16.109-35.98 35.98-35.98z" fill="#d41717" fill-rule="evenodd"/><path d="m144.56 68.145c-12.84-0.22266-23.922 12.547-21.207 25.305 1.8281 19.496 14.398 35.32 24.207 51.418 1.1055 5.9961-2.0586 11.832-2.2695 17.781-6.3945 34.945-16.152 69.699-31.164 101.76-18.578 8.5508-39.613 16.996-50.477 35.426-6.8945 12.789 2.8164 30.047 17.066 31.395 13.223 1.8086 23.035-9.5195 30.266-19.016 7.5469-10.211 12.512-22.371 18.789-33.344 38-15.305 77.98-26 118.79-30.062 16.5 11.812 33.98 25.742 55.141 26.586 12.301-0.18359 22.25-12.121 20.902-24.25-0.78906-11.039-10.598-18.781-20.762-20.852-16.387-4.9375-33.941-2.2344-50.609-2.1133-32.082-25.633-61.695-55.125-85.023-88.871 1.7344-20.516 5.2109-43.207-5.4727-61.871-4.0586-5.8867-10.934-9.9219-18.176-9.2891m0.60937 18.633c3.6133 0.69531 3.8516 6.0781 4.8633 8.9531 0.95312 5.8633 0.84765 11.848 0.78125 17.77-4.3047-8.0391-9.8906-16.441-8.8945-25.969 1.1328-0.04687 2.1367-0.62109 3.25-0.75m19.906 80.004c19.117 23.773 40.355 45.668 63.531 65.512-30.559 4.6602-60.922 12.469-89.996 23 11.152-29.145 19.641-59.254 25.234-89.984 0.41015 0.48828 0.8164 0.98046 1.2266 1.4726m119.26 79.918c7.414 0.71484 15.969 0.28516 21.906 5.3945 0.5547 4.6094-5.0859 5.2812-8.0898 3.6133-6.2656-2.0938-12.465-4.7226-17.785-8.7305 1.3242-0.082 2.6445-0.2539 3.9766-0.27734m-185.25 48.492c-3.5234 6.5586-8.6562 12.738-14.008 17.383-1.7812 2.8828-6.668-2.4492-4.418-4.6992 4.6406-7.2695 12.75-11.121 19.926-15.461-0.5039 0.92579-1 1.8516-1.5039 2.7812" opacity=".3"/><path d="m144.56 60.645c-12.84-0.22266-23.922 12.547-21.207 25.305 1.8281 19.496 14.398 35.32 24.207 51.418 1.1055 5.9961-2.0586 11.832-2.2695 17.781-6.3945 34.945-16.152 69.699-31.164 101.76-18.578 8.5508-39.613 16.996-50.477 35.426-6.8945 12.789 2.8164 30.047 17.066 31.395 13.223 1.8086 23.035-9.5195 30.266-19.016 7.5469-10.211 12.512-22.371 18.789-33.344 38-15.305 77.98-26 118.79-30.062 16.5 11.812 33.98 25.742 55.141 26.586 12.301-0.18359 22.25-12.121 20.902-24.25-0.78906-11.039-10.598-18.781-20.762-20.852-16.387-4.9375-33.941-2.2344-50.609-2.1133-32.082-25.633-61.695-55.125-85.023-88.871 1.7344-20.516 5.2109-43.207-5.4727-61.871-4.0586-5.8867-10.934-9.9219-18.176-9.2891m0.60937 18.633c3.6133 0.69531 3.8516 6.0781 4.8633 8.9531 0.95312 5.8633 0.84765 11.848 0.78125 17.77-4.3047-8.0391-9.8906-16.441-8.8945-25.969 1.1328-0.04687 2.1367-0.62109 3.25-0.75m19.906 80.004c19.117 23.773 40.355 45.668 63.531 65.512-30.559 4.6602-60.922 12.469-89.996 23 11.152-29.145 19.641-59.254 25.234-89.984 0.41015 0.48828 0.8164 0.98046 1.2266 1.4726m119.26 79.918c7.4141 0.71484 15.969 0.28516 21.906 5.3945 0.55469 4.6094-5.0859 5.2812-8.0898 3.6133-6.2656-2.0938-12.465-4.7226-17.785-8.7305 1.3242-0.082 2.6445-0.2539 3.9766-0.27734m-185.25 48.492c-3.5234 6.5586-8.6562 12.738-14.008 17.383-1.7812 2.8828-6.668-2.4492-4.418-4.6992 4.6406-7.2695 12.75-11.121 19.926-15.461-0.5039 0.92579-1 1.8516-1.5039 2.7812" fill="#fff"/><path transform="scale(.75)" d="m78.975 31c-26.495 0-47.975 21.48-47.975 47.975v10c0-26.495 21.48-47.975 47.975-47.975h354.05c26.495 0 47.975 21.48 47.975 47.975v-10c0-26.495-21.48-47.975-47.975-47.975z" fill="#fff" fill-rule="evenodd" opacity=".3"/><path transform="scale(.75)" d="m31 423.03v10c0 26.495 21.48 47.975 47.975 47.975h354.05c26.495 0 47.975-21.48 47.975-47.975v-10c0 26.495-21.48 47.975-47.975 47.975h-354.05c-26.495 0-47.975-21.48-47.975-47.975z" fill-rule="evenodd" opacity=".3"/></svg>
